icon-themes/sifr_svg/cmd/km/lc_bold.svg

<svg viewBox="0 0 24 24" xmlns="http://www.w3.org/2000/svg"><path d="m10.919922 1c-2.8800005 0-4.3203126 1.0176504-4.3203126 3.0546875 0 1.2222222.4011719 1.8339844 1.2011718 1.8339844h6.7441408v2.8105469c0 .4074074-.449703.6113281-1.345703.6113281h-3.7441409v-1.5878907h-3.4550781v3.8867188h9.119141c1.92 0 2.880859-.970897 2.880859-2.9101562v-2.8105469h-.599609v-1.8339844c-.88-.8148148-1.88-1.5275607-3-2.1386719-1.128-.6111111-2.28847-.9160156-3.480469-.9160156zm0 2.1992188c1.487999-.0000001 2.680171.3682291 3.576172 1.1015624h-4.8964846c0-.7333333.4403116-1.1015624 1.3203126-1.1015624zm-4.919922 9.7421872v10.058594h3.2285156l2.7832034-2.566406 2.771484 2.566406h3.216797v-10.058594h-3.455078v6.84375l-2.533203-2.345703-2.5566409 2.371094v-6.869141z" fill="#555753"/></svg>

<svg xmlns="http://www.w3.org/2000/svg" viewBox="0 0 24 24">
  <path
     style="fill:#555753"
     d="M 10.919922 1 C 8.0399215 1 6.5996094 2.0176504 6.5996094 4.0546875 C 6.5996094 5.2769097 7.0007813 5.8886719 7.8007812 5.8886719 L 14.544922 5.8886719 L 14.544922 8.6992188 C 14.544922 9.1066262 14.095219 9.3105469 13.199219 9.3105469 L 9.4550781 9.3105469 L 9.4550781 7.7226562 L 6 7.7226562 L 6 11.609375 L 15.119141 11.609375 C 17.039141 11.609375 18 10.638478 18 8.6992188 L 18 5.8886719 L 17.400391 5.8886719 L 17.400391 4.0546875 C 16.520391 3.2398727 15.520391 2.5271268 14.400391 1.9160156 C 13.272391 1.3049045 12.111921 1 10.919922 1 z M 10.919922 3.1992188 C 12.407921 3.1992187 13.600093 3.5674479 14.496094 4.3007812 L 9.5996094 4.3007812 C 9.5996094 3.5674479 10.039921 3.1992188 10.919922 3.1992188 z M 6 12.941406 L 6 23 L 9.2285156 23 L 12.011719 20.433594 L 14.783203 23 L 18 23 L 18 12.941406 L 14.544922 12.941406 L 14.544922 19.785156 L 12.011719 17.439453 L 9.4550781 19.810547 L 9.4550781 12.941406 L 6 12.941406 z "
     />
</svg>
